outputs/icons/maps/cafe_round.svg

<svg xmlns="http://www.w3.org/2000/svg" width="1200" height="1200" fill="none"><g clip-path="url(#a)"><path fill="#000" d="M1000 150H300c-55 0-100 45-100 100v400c0 110.5 89.5 200 200 200h300c110.5 0 200-89.5 200-200V500h100c55 0 100-45 100-100V250c0-55-45-100-100-100m0 250H900V250h100zm-850 650h800c27.5 0 50-22.5 50-50s-22.5-50-50-50H150c-27.5 0-50 22.5-50 50s22.5 50 50 50"/></g><defs><clipPath id="a"><path fill="#fff" d="M0 0h1200v1200H0z"/></clipPath></defs></svg>

<svg width="1200" height="1200" viewBox="0 0 1200 1200" fill="none" xmlns="http://www.w3.org/2000/svg"><g clip-path="url(#clip0_238_1720)"><path d="M1000 150H300C245 150 200 195 200 250V650C200 760.5 289.5 850 400 850H700C810.5 850 900 760.5 900 650V500H1000C1055 500 1100 455 1100 400V250C1100 195 1055 150 1000 150ZM1000 400H900V250H1000V400ZM150 1050H950C977.5 1050 1000 1027.5 1000 1000C1000 972.5 977.5 950 950 950H150C122.5 950 100 972.5 100 1000C100 1027.5 122.5 1050 150 1050Z" fill="#1D1E23"/></g><defs><clipPath id="clip0_238_1720"><path width="24" fill="white" d="M0 0H1200V1200H0V0z"/></clipPath></defs></svg>
